assets/img/corner.svg

<svg width="81" height="82" viewBox="0 0 81 82" fill="none" xmlns="http://www.w3.org/2000/svg">
<path d="M10.9481 54.5183C10.9183 44.1488 10.5159 33.9596 9.49638 23.6486C9.20167 20.6957 9.30436 17.7215 8.96926 14.789C8.80383 13.3129 8.63146 12.6274 8.46608 11.1552C8.23077 9.64848 8.16739 8.734 8.84155 8.6041C10.4992 8.31421 11.7311 8.29663 13.4142 8.1681C16.778 7.91121 29.1388 7.156 32.4366 7.02654C37.7245 6.81896 85.8527 3.16838 79.6574 1.24215C78.1292 0.837847 76.5414 0.628545 74.9432 0.620694C70.6105 0.444521 48.233 0.846651 43.8657 0.777701C41.7001 0.744948 34.9712 0.851572 32.7304 0.93452C29.3645 1.04122 16.3024 1.44654 13.7566 1.67216C11.2107 1.89778 4.64313 2.25176 0.287437 2.68013L0.224108 2.68103C0.201512 2.68134 0.224608 2.7166 0.224831 2.73241L0.226557 2.85493L0.309009 3.5693L0.61907 6.01195L1.03725 9.70626L1.58 13.8929C2.37627 20.3649 2.44417 26.4717 2.96054 32.9674C3.6391 41.3517 3.60968 38.6187 4.08959 47.0191C4.19389 54.4253 4.72768 61.8627 5.25242 69.253C6.98833 93.7006 11.0121 76.7285 10.9481 54.5183Z" fill="#6E3CBE"/>
</svg>

<svg width="81" height="82" fill="none" xmlns="http://www.w3.org/2000/svg"><path d="M10.948 54.518c-.03-10.37-.432-20.558-1.452-30.87-.294-2.952-.192-5.927-.527-8.859-.165-1.476-.338-2.162-.503-3.634-.235-1.507-.299-2.421.376-2.55 1.657-.29 2.89-.308 4.572-.437 3.364-.257 15.725-1.012 19.023-1.141 5.288-.208 53.416-3.859 47.22-5.785a18.814 18.814 0 0 0-4.714-.621c-4.332-.176-26.71.226-31.077.157C41.7.745 34.97.852 32.73.935c-3.365.106-16.428.512-18.973.737-2.546.226-9.114.58-13.47 1.008l-.063.001c-.022 0 0 .036 0 .051l.003.123.082.714.31 2.443.418 3.694.543 4.187c.796 6.472.864 12.579 1.38 19.074.68 8.385.65 5.652 1.13 14.052.104 7.406.638 14.844 1.162 22.234 1.736 24.448 5.76 7.475 5.696-14.735Z" fill="#6E3CBE"/></svg>
